icons/arrow-block-down.svg

<svg width="24" height="24" viewBox="0 0 24 24" fill="none" xmlns="http://www.w3.org/2000/svg">
<path fill-rule="evenodd" clip-rule="evenodd" d="M10.15 4H13.85V10.9H17.133L12.0007 19.814L6.86277 10.8H10.15V4ZM8.68847 3.51283C8.85145 3.0239 9.26868 2.5 9.99998 2.5H14C14.3939 2.5 14.7251 2.68941 14.9428 2.90717C15.1606 3.12493 15.35 3.45608 15.35 3.85V9.4H18C18.376 9.4 18.7152 9.60341 18.8833 9.93959C19.0425 10.2579 19.0092 10.6087 18.8708 10.8854L18.8609 10.9051L13.1588 20.8089C12.6752 21.7309 11.3227 21.7304 10.8403 20.8072L5.13829 10.8037L5.12916 10.7854C4.9908 10.5087 4.95749 10.1579 5.11666 9.83959C5.28476 9.50341 5.62393 9.3 5.99998 9.3H8.64998V3.62829L8.68847 3.51283Z" fill="black"/>
</svg>

<svg xmlns="http://www.w3.org/2000/svg" fill="none" viewBox="0 0 24 24">
  <path fill="#000" fill-rule="evenodd" d="M10.15 4h3.7v6.9h3.283l-5.132 8.914L6.863 10.8h3.287V4Zm-1.462-.487C8.851 3.023 9.268 2.5 10 2.5h4c.394 0 .725.19.943.407.218.218.407.55.407.943V9.4H18c.376 0 .715.203.883.54.16.318.126.669-.012.945l-.01.02-5.702 9.904c-.484.922-1.836.921-2.319-.002L5.138 10.804l-.009-.019a1.056 1.056 0 0 1-.012-.945A.978.978 0 0 1 6 9.3h2.65V3.628l.038-.115Z" clip-rule="evenodd"/>
</svg>
